X:1
T:The sports of May
T:The sports of May
T:anon. (c. 1773)
T:www.sangerforum.no
T:www.sangerforum.no
C:anon. (c. 1773)
Z:www.sangerforum.no
%%score [ 1 2 3 ]
L:1/8
Q:3/8=50
M:6/8
K:D
V:1 treble-8 nm="I"
V:2 treble-8 nm="II"
V:3 treble-8 nm="III"
V:1
|: A | d2 d (e2 f/g/) | f3 d2 B | (AdB) A2 G | (G F2) z2 E | (F2 A) ^G2 B | A B c d c B | %7
w: 'Twas|on a bright _ _|morn- ing, a|morn- * * ing in|May, _ the|lads _ and the|lass- es, the lass- es all|
 c3 (BA) B | A3 z2 A | d2 =c B2 (d/c/) | (BA) B =c2 c | e2 d c2 (e/d/) | (cB) c d2 d | %13
w: went out _ to|play, the|all went out, went _|out _ to play, they|all went out, went _|out _ to play, the|
 f2 e ^d2 (f/e/) | (^dc) d e2 =d | c2 c (dc) d | d3 c2 e | (f>gf) e2 e | f3 z2 e | %19
w: all went out, went _|out _ to play, they|all went out _ to|play, _ to|play, _ _ all to|play, they|
 (f>g) f (e>d) e | d3 z2 :| %21
w: all _ went out _ to|play.|
V:2
|: A | A3 A2 A | A3 z3 | z B G F3/2 G/ E | D D2 z2 A | A2 F E2 ^G | A3 A2 A | A3 (^GF) G | %8
w: The|birds from each|bush|with a song did de-|light 'em, the|mer- ry pipe and|ta- bor to|dance did _ in-|
 A A E A2 G | F2 z z2 D | G2 z z3 | z3 z2 E | A2 z z3 | z3 z2 F | B2 z z2 ^G | A A G F E D | A6- | %17
w: vite 'em, the mer- ry|pipe, to|dance,|to|dance,|to|dance, to|dance did in- vite 'em, to|dance,|
 A6- | A3- A2 A | A2 A A3/2 B/ A | F D2 z2 :| %21
w: _|* * to|dance, to dance did in-|vite 'em.|
V:3
|: e | f2 d d d c | d D2 z2 G | F2 G A3/2 A,/ A, | B,3 C2 C | D2 D D2 D | C D E F E D | E3 E2 E | %8
w: Then|to it, to it they|buck- led, each|lad, eache lad with his|lass, led by|Su- san, led by|Su- san and Ro- ger up-|on the green|
 A,3 z2 C | (DE) F G2 z | z2 =F E =C E | (EF) ^G A2 z | z2 G F D F | (F^G) ^A B2 z | z2 A ^G E z | %15
w: grass, by|Su- * san led,|and Ro- ger, by|Su- * san led,|and Ro- ger, by|Su- * san led,|and Ro- ger,|
 z2 E A G F | (F3 E2) c | d3/2 e/ d c A z | z2 d c A c | d3/2 e/ d c3/2 B/ c | d3 z2 :| %21
w: up- on the green|grass, _ by|Su- san and Ro- ger,|and Ro- ger, and|Ro- ger, up- on the green|grass.|

